!!!!SEGMENT: pl-kk--kk-i-10--006_pekiel-bartlomiej--domine-ne-in-furore-tuo.krn
!!!cenid: 16xx:1193
!!!COM: Pękiel, Bartłomiej
!!!COM-rismid: pe30105642
!!!CDT: <1633-~1670
!!!CNT: Polish
!!!OTL: Domine ne in furore tuo
!!!PDT:
!!!AGN: Sacred
!!!SMS-siglum: PL-Kk
!!!SMS-shelfmark: Kk.I.10
!!!SMS-shelfwork: 006 W
!!!SMS-variant:
!!!SMS-altvar:
!!!NIFC-rismid: 1001151834
!!!URL-scan: http://repozytorium.nifc.pl/skany/pl-kk-nut--i-10
!!!ONB-nifc: UWAGA: T1(skan 0012-0014), T2(0063-0064), B (0012-0113). Następny utwór: O adoranda trinitas
**kern	**text	**kern	**text	**kern	**text	**kern
*part4	*part4	*part3	*part3	*part2	*part2	*part1
*staff4	*staff4	*staff3	*staff3	*staff2	*staff2	*staff1
*Ibass	*	*Itenor	*	*Ialto	*	*Isoprn
*I"Bassus.	*	*I"Tenor	*	*I"Altus.	*	*I"[Cantus]
*I'B.	*	*I'T.	*	*I'A.	*	*I'C.
*clefF4	*	*clefC4	*	*clefC4	*	*clefC3
*k[b-]	*	*k[b-]	*	*k[b-]	*	*k[b-]
*F:	*	*F:	*	*F:	*	*F:
*M4/4	*	*M4/4	*	*M4/4	*	*M4/4
*met(C)	*	*met(C)	*	*met(C)	*	*met(C)
=	=	=	=	=	=	=
!	!	!LO:TX:a:i:t=a 4. ſ. B P.	!	!	!	!LO:TX:t=P:problem:Cantus sie nie zachował, ale w księdze tenoru pojawia się inskrypcja a4, więc umieszczam ukrytą pięciolinię dla Cantus
00r	.	1.F/	Do-	0r	.	0ryy
.	.	2F/	-mi-	.	.	.
=1-	=1-	=1-	=1-	=1-	=1-	=1-
.	.	1.C/	-ne	1.c\	Do-	0ryy
*	*	*	*	*2\right	*	*
.	.	2C/	ne	2c\	-mi-	.
=2-	=2-	=2-	=2-	=2-	=2-	=2-
00r	.	2D/	in	2F/	-ne	0ryy
.	.	2D/	fu-	2F/	ne	.
.	.	2E/	-ro-	2G/	in	.
.	.	4C/	-re	2G/	fu-	.
.	.	4C/	fu-	.	.	.
=3-	=3-	=3-	=3-	=3-	=3-	=3-
.	.	2.F/	-ro-	4A/	-ro-	0ryy
.	.	.	.	4F/	.	.
*	*	*	*	*lig	*	*
.	.	.	.	1c\	.	.
.	.	4E/	.	.	.	.
.	.	4D/	.	.	.	.
.	.	4C/	.	.	.	.
.	.	4.D/	.	1B-\	.	.
.	.	8D/	-re	.	.	.
*	*	*	*	*Xlig	*	*
=4-	=4-	=4-	=4-	=4-	=4-	=4-
1.C/	Do-	2E/	tu-	.	.	0ryy
.	.	1F/	.	2A\	-re	.
.	.	.	.	1G/	tu-	.
2C/	-mi-	2E/	.	.	.	.
=5-	=5-	=5-	=5-	=5-	=5-	=5-
1.FF/	-ne	1F/,<	-o	2A\	-o	0ryy
.	.	.	.	2c\	ne	.
!	!	!LO:SIC:v:t=custos B-	!	!	!	!
.	.	1A\	ne	1.d\	in	.
*2\right	*	*	*	*	*	*
!	!	!	!	!	!	!
2F\	ne	.	.	.	.	.
!	!	!LO:LB:g=original	!	!	!	!
=6-	=6-	=6-	=6-	=6-	=6-	=6-
*	*	*2\right	*	*	*	*
!	!	!	!	!	!	!
2G\	in	2B-\	in	.	.	0ryy
!	!	!	!	!LO:SIC:v:t=custos f	!	!
2G\	fu-	2A/	fu-	2e\	fu-	.
!	!	!	!	!LO:PB:g=original	!	!
2A\	-ro-	4d\	-ro-	2.f\	-ro-	.
.	.	4e\	.	.	.	.
4F\	-re	1f\	.	.	.	.
4F\	fu-	.	.	4e\	.	.
=7-	=7-	=7-	=7-	=7-	=7-	=7-
2.B-\	-ro-	.	.	2.d\	.	0ryy
.	.	2e-X\	-re	.	.	.
4A\	.	.	.	4c\	.	.
1G\	.	2d\	tu-	1.B-\	.	.
.	.	4c\	.	.	.	.
.	.	4B-\	.	.	.	.
=8-	=8-	=8-	=8-	=8-	=8-	=8-
!	!	!LO:N:vis=1	!	!	!	!
0F\	-re	0c\	-o	.	.	0ryy
.	.	.	.	4A\	.	.
.	.	.	.	4G\	.	.
.	.	.	.	1A\	.	.
=9-	=9-	=9-	=9-	=9-	=9-	=9-
(2E\	tu-	00r	.	2G/	-re	0ryy
2F\)	.	.	.	2A/	ne	.
2BB-/	-o	.	.	2.B-\	in	.
!LO:SIC:v:t=custos C	!	!	!	!	!	!
2BB-/	ne	.	.	.	.	.
.	.	.	.	4A/	fu-	.
!LO:LB:g=original	!	!	!	!	!	!
=10-	=10-	=10-	=10-	=10-	=10-	=10-
2C/	in	.	.	4G/	-ro-	0ryy
.	.	.	.	4C/	.	.
2C/	fu-	.	.	1c\	.	.
1D\	-ro-	.	.	.	.	.
.	.	.	.	2B-\	.	.
=11-	=11-	=11-	=11-	=11-	=11-	=11-
1C/	-re	0r	.	2A/	.	0ryy
.	.	.	.	2G/	-re	.
1FF/	tu-	.	.	4A\	tu-	.
.	.	.	.	4B-\	.	.
.	.	.	.	1c\	.	.
=12-	=12-	=12-	=12-	=12-	=12-	=12-
1GG/	-o	2.G/	Do-	.	.	0ryy
!	!	!	!	!LO:TX:t=P:problem:# above	!	!
!	!	!	!	!LO:N:acc=#	!	!
.	.	.	.	2Bn\	.	.
.	.	4G/	-mi-	.	.	.
00r	.	2C/	-ne	2c\	-o	.
.	.	2C/	ne	4c\	ar-	.
!	!	!	!	!LO:SIC:v:t=custos A	!	!
.	.	.	.	4B\	.	.
!	!	!	!	!LO:LB:g=original	!	!
=13-	=13-	=13-	=13-	=13-	=13-	=13-
.	.	2D/	in	4A\	.	0ryy
.	.	.	.	8B-y\L	.	.
.	.	.	.	8c\J	.	.
.	.	2D/	fu-	4.d\	.	.
.	.	.	.	8d\	-gu-	.
.	.	2E/	-ro-	2c\	-as	.
.	.	2C/	-re	4c\	ar-	.
.	.	.	.	4B-\	.	.
=14-	=14-	=14-	=14-	=14-	=14-	=14-
.	.	2.F/	tu-	2.A\	.	0ryy
.	.	4G\	.	4B-\	.	.
1.F\	Do-	2A/	.	2c\	.	.
.	.	2.B-\	.	2.d\	.	.
=15-	=15-	=15-	=15-	=15-	=15-	=15-
.	.	.	.	.	.	0ryy
.	.	8A/L	.	8c\L	.	.
.	.	8G/J	.	8B-\J	.	.
!	!	!LO:LB:g=original	!	!	!	!
2F\	-mi-	2A/	.	4c\	.	.
.	.	.	.	8c\	-gu-	.
.	.	.	.	8c\	-as	.
2BB-,</	-ne	2B-\	-o	1d\	me	.
2BB-/	ne	4B-\	ar-	.	.	.
.	.	4A/	.	.	.	.
=16-	=16-	=16-	=16-	=16-	=16-	=16-
2C/	in	4G/	.	1c\	ne	0ryy
.	.	4F/	-gu-	.	.	.
2C/	fu-	2G/	-os	.	.	.
2.D/	-ro-	1F/	me	4A/	in	.
.	.	.	.	4F/	fu-	.
.	.	.	.	4.B-\	-ro-	.
4BB-/	-re	.	.	.	.	.
.	.	.	.	8B-\	-re	.
=17-	=17-	=17-	=17-	=17-	=17-	=17-
2.F\	tu-	2r	.	2.A/	tu-	0ryy
.	.	2c\	ne	.	.	.
4E\	.	.	.	4G/	.	.
1D\	.	2c\	in	1F/	.	.
.	.	2B-\	fu-	.	.	.
!	!	!	!	!LO:LB:g=original	!	!
=18-	=18-	=18-	=18-	=18-	=18-	=18-
1C/	-o	2A/	-ro-	1c\	-o	0ryy
.	.	2G/	-re	.	.	.
2.D/	ar-	1F/	tu-	4A\	ar-	.
.	.	.	.	8B-\L	.	.
.	.	.	.	8c\J	.	.
.	.	.	.	1d\	.	.
4C/	.	.	.	.	.	.
=19-	=19-	=19-	=19-	=19-	=19-	=19-
4.BB-/	.	1G/	-o	.	.	0ryy
!LO:SIC:v:t=custos C	!	!	!	!	!	!
8BB-/	-gu-	.	.	.	.	.
!LO:LB:g=original	!	!	!	!	!	!
2C/	-as	.	.	2c\	.	.
!	!	!	!	!LO:N:acc=#	!	!
0GG/	me	2.G/	ar-	4Bn\	.	.
.	.	.	.	8c\L	.	.
.	.	.	.	8d\J	.	.
.	.	.	.	4.e-X\	.	.
.	.	4G/	-gu-	.	.	.
.	.	.	.	8e-\	-gu-	.
=20-	=20-	=20-	=20-	=20-	=20-	=20-
.	.	1G/	-as	1d\	-as	0ryy
0r	.	4C/	me	4c,<\	me	.
.	.	4c\	ne-	4e-X\	ne-	.
.	.	4c\	-q(ue)	4e-\	-que	.
!	!	!LO:N:acc=#	!	!	!	!
.	.	4Bn\	in	4d\	in	.
=21-	=21-	=21-	=21-	=21-	=21-	=21-
.	.	4.c\	i-	4.e-X\	i-	0ryy
!	!	!LO:SIC:v:t=custos A	!	!	!	!
.	.	8B-y\	-ra	8d\	-ra	.
!	!	!LO:LB:g=original	!	!	!	!
.	.	2A/	tu-	2c\	tu-	.
4r	.	4G/	-a	4B-,<\	-a	.
*	*	*	*ij	*	*ij	*
4G\	ne-	4B-\	ne-	4d\	ne-	.
4G\	-q(ue)	4B-\	-q(ue)	4d\	-que	.
4F#X\	in	4A/	in	4d\	in	.
=22-	=22-	=22-	=22-	=22-	=22-	=22-
4.G\	i-	4.B-\	i-	4.d\	i-	0ryy
!	!	!	!	!LO:SIC:v:t=custos d	!	!
8Fny\	-ra	8d\	-ra	8d\	-ra	.
!	!	!	!	!LO:LB:g=original	!	!
2E-X\	tu-	4B-\	tu-	(4d\	tu-	.
.	.	8A/L	.	4c\)	.	.
.	.	8G/J	.	.	.	.
4D,</	-a	4A/	-a	4d,<\	-a	.
*	*ij	*	*	*	*	*
4BB-/	ne-	4B-\	ne-	4d\	ne-	.
4BB-/	-que	4B-\	-q(ue)	4d\	-que	.
4AA/	in	4c\	in	4c\	in	.
=23-	=23-	=23-	=23-	=23-	=23-	=23-
4.BB-/	i-	4B-\	i-	4.d\	i-	0ryy
.	.	4F/	-ra	.	.	.
8AA/	-ra-	.	.	8c\	-ra	.
2GG/	-tu-	2G/	tu-	2B-\	tu-	.
2FF/	-a	2A/	-a	2c\	-a	.
*	*Xij	*	*Xij	*	*Xij	*
2FF/	cor-	2A/	cor-	2c\	cor-	.
=24-	=24-	=24-	=24-	=24-	=24-	=24-
1.C/	-ri-	2A/	-ri-	1c\	-ri-	0ryy
.	.	4G/	.	.	.	.
.	.	4F/	.	.	.	.
.	.	2G/	-pi-	4c\	-pi-	.
.	.	.	.	4c\	-as	.
4C/	-pi-	4G/	-as	2c\	.	.
4C/	-as	4G/	.	.	.	.
=25-	=25-	=25-	=25-	=25-	=25-	=25-
1FF/;	me	1A\;<	me	1c\;<	me	0ryy
!	!	!LO:TX:t=P:problem:kreska pseudotaktowa	!	!	!	!
1ryy	.	1ryy	.	1ryy	.	.
!	!	!LO:LB:g=original	!	!	!	!
=26-	=26-	=26-	=26-	=26-	=26-	=26-
*M2/2	*	*M2/2	*	*M2/2	*	*M2/2
*met(C|)	*	*met(C|)	*	*met(C|)	*	*met(C|)
0r	.	1r	.	0r	.	0ryy
.	.	2.c\	Mi-	.	.	.
.	.	4G/	-ſe-	.	.	.
=27-	=27-	=27-	=27-	=27-	=27-	=27-
2.G\	Mi-	2.B-\	-re-	2r	.	0ryy
.	.	.	.	2d\	Mi-	.
4D/	-ſe-	4d\	-re	.	.	.
2F\	-re-	8c\L	me-	4A/	-ſe-	.
.	.	8B-\J	.	.	.	.
.	.	4A\	.	2c\	-re-	.
4C/	-re	4G/	-i	.	.	.
*	*ij	*	*ij	*	*	*
2C/	mi-	2c\	Mi-	4G,</	-re	.
=28-	=28-	=28-	=28-	=28-	=28-	=28-
.	.	.	.	8G/L	me-	0ryy
.	.	.	.	8A/	.	.
4GG/	-ſe-	4B-\	-ſe-	8B-/	.	.
.	.	.	.	8c/J	.	.
!	!	!	!	!LO:LB:g=original	!	!
2BB-/	-re-	2B-\	-re-	8d\L	.	.
.	.	.	.	8c\	.	.
.	.	.	.	8B-\	.	.
.	.	.	.	16A\L	.	.
.	.	.	.	16G\JJ	.	.
2FF/	-re	1c\	-re	4A/	.	.
*	*Xij	*	*Xij	*	*	*
.	.	.	.	4G/	.	.
1F\	me-	.	.	4F/	.	.
.	.	.	.	4G/	.	.
=29-	=29-	=29-	=29-	=29-	=29-	=29-
.	.	4c\	me-	4A/	.	0ryy
.	.	4d\	.	4F/	.	.
2E-X\	-i	4.e-X\	.	4c\	-i	.
.	.	.	.	4B-\	.	.
.	.	8e-\	.	.	.	.
1.F\	Do-	2d\	-i	2A/	Do-	.
.	.	4c\	Do-	1B-\	.	.
.	.	4B-\	.	.	.	.
=30-	=30-	=30-	=30-	=30-	=30-	=30-
.	.	2.c\	.	.	.	0ryy
2F\	-mi-	.	.	2A/	-mi-	.
.	.	4c\	-mi-	.	.	.
2BB-/	-ne	2d\	-ne	2B-,<\	-ne	.
!	!	!LO:LB:g=original	!	!	!	!
2.B-\	Quo-	2r	.	2.d\	Quo-	.
=31-	=31-	=31-	=31-	=31-	=31-	=31-
.	.	0r	.	.	.	0ryy
4B-\	-ni-	.	.	4d\	-ni-	.
4A\	-am	.	.	4c\	-am	.
4B-\	in-	.	.	4d\	in-	.
2.G\	-fir-	.	.	2.B-\	-fir-	.
4G\	-mus	.	.	4B-\	-mus	.
=32-	=32-	=32-	=32-	=32-	=32-	=32-
!LO:SIC:v:t=custos F	!	!	!	!	!	!
2F\	sum	2r	.	2c\	sum	0ryy
!LO:LB:g=original	!	!	!	!	!	!
*	*ij	*	*	*	*	*
2.F\	quo-	2.c\	quo-	2.A/	Quo-	.
4F\	-ni-	4c\	-ni-	4A/	-ni-	.
4E\	-am	4.c\	-am	4G/	-am	.
!	!	!	!	!LO:SIC:v:t=custos c	!	!
4F\	in-	.	.	4c\	i[n]-	.
.	.	8A\	in-	.	.	.
!	!	!	!	!LO:LB:g=original	!	!
=33-	=33-	=33-	=33-	=33-	=33-	=33-
2.D/	-fir-	2.d\	-fir-	4c\	-fir-	0ryy
!	!	!	!	!LO:TX:t=P:problem:# above	!	!
!	!	!	!	!LO:N:acc=#	!	!
.	.	.	.	8Bn\L	.	.
.	.	.	.	8A\J	.	.
.	.	.	.	4.B\	.	.
4D/	-mus	4d\	-mus	.	.	.
.	.	.	.	8B\	-mus	.
4C,</	sum	4G/	ſum	2c\	sum	.
*	*Xij	*	*	*	*	*
4C/	sa-	4c\	sa-	.	.	.
4E\	-na	4G/	-na	2r	.	.
4G\	me	4B-\	me	.	.	.
=34-	=34-	=34-	=34-	=34-	=34-	=34-
4G\	Do-	2.A/	Do-	1r	.	0ryy
!LO:TX:t=P:problem:# above	!	!	!	!	!	!
8F#X\L	.	.	.	.	.	.
8E\J	.	.	.	.	.	.
4.F#\	.	.	.	.	.	.
.	.	4A/	-mi-	.	.	.
8F#\	-mi-	.	.	.	.	.
2G\	-ne	2G/	-ne	4r	.	.
.	.	.	.	4G/	sa-	.
2r	.	2r	.	8B-y\	-na	.
.	.	.	.	8B-\	me	.
.	.	.	.	2d\	Do-	.
=35-	=35-	=35-	=35-	=35-	=35-	=35-
1r	.	1r	.	.	.	0ryy
!	!	!	!	!LO:TX:t=P:problem:# above	!	!
.	.	.	.	8c#X\L	.	.
.	.	.	.	8B-\J	.	.
.	.	.	.	4.c#\	.	.
.	.	.	.	8c#\	-mi-	.
*	*ij	*	*	*	*	*
2D/	sa-	4r	.	4d,<\	-ne	.
*	*	*	*	*	*ij	*
.	.	4A/	sa-	4d\	sa-	.
4GG/	-na	4B-\	-na	4.d\	-na	.
4BB-/	me	4d\	me	.	.	.
.	.	.	.	8G/	me	.
=36-	=36-	=36-	=36-	=36-	=36-	=36-
2.AA/	Do-	2.c\	Do-	2.A/	Do-	0ryy
4AA/	-mi-	4c\	-mi-	4A/	-mi-	.
4GG,</	-ne	4B-\	-ne	4D,</	-ne	.
*	*Xij	*	*	*	*Xij	*
2G\	Quo-	2d\	Quo-	2B-\	Quo-	.
!LO:SIC:v:t=custos D	!	!	!	!	!	!
4G\	-ni-	4d\	-ni-	4B-\	-ni-	.
!LO:LB:g=original	!	!LO:LB:g=original	!	!	!	!
=37-	=37-	=37-	=37-	=37-	=37-	=37-
2D/	-am	2d\	-am	4A/	-am	0ryy
!	!	!	!	!LO:LB:g=original	!	!
.	.	.	.	4.A/	con-	.
4.D/	con-	2r	.	.	.	.
.	.	.	.	8F/	-tur-	.
.	.	.	.	4.B-\	-ba-	.
8BB-/	-tur-	.	.	.	.	.
4.E-X\	-ba-	1r	.	.	.	.
.	.	.	.	8A/	-ta	.
.	.	.	.	2G/	ſunt	.
8D/	-ta	.	.	.	.	.
2C/	ſunt	.	.	.	.	.
.	.	.	.	4.cny\	con-	.
=38-	=38-	=38-	=38-	=38-	=38-	=38-
4.Fny\	con-	4.A/	con-	.	.	0ryy
.	.	.	.	8A\	-tur-	.
.	.	.	.	4.d\	-ba-	.
8D/	-tur-	8F/	-tur-	.	.	.
4.G\	-ba-	4.B-\	-ba-	.	.	.
.	.	.	.	8c\	-ta	.
.	.	.	.	4B-\	ſunt	.
8F\	-ta	8A/	-ta	.	.	.
4Eny\	ſunt	2G/	ſunt	2.c\	oſ-	.
*	*ij	*	*	*	*	*
8E\	con-	.	.	.	.	.
8C/	-rut-	.	.	.	.	.
4.F\	-ba-	4F/	oſ-	.	.	.
.	.	4A/	-sa	4A\	-sa	.
8E\	-ta	.	.	.	.	.
=39-	=39-	=39-	=39-	=39-	=39-	=39-
4D/	ſunt	8f\L	me-	2.d\	me-	0ryy
*	*Xij	*	*	*	*	*
.	.	8eny\J	.	.	.	.
2BB-/	oſ-	4.d\	.	.	.	.
.	.	8e\L	.	.	.	.
4AA/	-sa	8f\	.	4c\	.	.
.	.	8A\J	.	.	.	.
1GG/	me-	2d\	.	1B-\	.	.
.	.	4c\	.	.	.	.
.	.	4B-\	.	.	.	.
=40-	=40-	=40-	=40-	=40-	=40-	=40-
2FF/	-a	2c\	-a	4A\	-a	0ryy
.	.	.	.	4F/	et	.
2r	.	2r	.	4G/	A-	.
.	.	.	.	8G/	-ni-	.
.	.	.	.	8A/	-ma	.
2r	.	2r	.	8B-\L	me-	.
.	.	.	.	8F\J	.	.
.	.	.	.	2B-\	.	.
4r	.	4r	.	.	.	.
!LO:SIC:v:t=custos E-	!	!	!	!	!	!
4F\	Et	4F/	et	8A\L	.	.
.	.	.	.	8B-\J	.	.
!LO:LB:g=original	!	!	!	!LO:LB:g=original	!	!
=41-	=41-	=41-	=41-	=41-	=41-	=41-
4.E-X\	A-	4G/	A-	2c\	-a	0ryy
.	.	8G/L	-ni-	.	.	.
!	!	!LO:SIC:v:t=custos B-	!	!	!	!
8E-\	-ni-	8A/J	-ma	.	.	.
!	!	!LO:LB:g=original	!	!	!	!
2D/	-ma	8B-\L	me-	4r	.	.
.	.	8F\J	.	.	.	.
.	.	2B-\	.	4F/	et	.
2C/	me-	.	.	8.G/	A-	.
.	.	.	.	16G/	-ni-	.
.	.	4A/	.	4A/	-ma	.
2BB-/	-a	2d\	-a	8B-/L	me-	.
.	.	.	.	8F/J	.	.
.	.	.	.	2B-\	.	.
=42-	=42-	=42-	=42-	=42-	=42-	=42-
4r	.	4r	.	.	.	0ryy
*	*ij	*	*	*	*	*
4FF/	et	4f\	et	4A\	.	.
4GG/	A-	4e-X\	A-	4.B-\	-a	.
8GG/	-ni-	8e-\	-ni-	.	.	.
*	*	*	*	*	*ij	*
8AA/	-ma	8e-\	-ma	8c\	et	.
8BB-/L	me-	2d\	me-	4.B-\	a-	.
8FF/J	.	.	.	.	.	.
2BB-/	-a	.	.	.	.	.
.	.	.	.	8B-\	-ni-	.
.	.	2c\	.	2c\	-ma	.
4AA/	a-	.	.	.	.	.
=43-	=43-	=43-	=43-	=43-	=43-	=43-
4.BB-/	-ni-	4B-\	.	4.d\	me-	1ryy
.	.	4F/	.	.	.	.
8AA/	-ma	.	.	8c\	.	.
2GG/	me-	2G/	.	2B-\	.	.
=44-	=44-	=44-	=44-	=44-	=44-	=44-
*M3/2	*	*M3/2	*	*M3/2	*	*M3/2
1FF/,<	-a	1C/	-a	1c\,<	-a	1.ryy
*	*Xij	*	*	*	*Xij	*
2F\	tur-	2r	.	2A\	tur-	.
=45-	=45-	=45-	=45-	=45-	=45-	=45-
!	!	!LO:N:vis=0	!	!	!	!
2B-\	-ba-	0.r	.	2d\	-ba-	1.ryy
2.A\	-ta	.	.	2.c\	-ta	.
4B-\	tur-	.	.	4d\	[tur]-	.
!	!	!	!	!LO:PB:g=original	!	!
=46-	=46-	=46-	=46-	=46-	=46-	=46-
2.G\	-ba-	.	.	2.B-\	-ba-	1.ryy
4G\	-ta	.	.	4B-\	-ta	.
!LO:SIC:v:t=custos E-	!	!	!	!	!	!
!LO:N:vis=1	!	!	!	!	!	!
2F\	eſt	.	.	2A\	eſt	.
!LO:LB:g=original	!	!	!	!	!	!
=47-	=47-	=47-	=47-	=47-	=47-	=47-
1.E-X\	.	1.r	.	1.G/	Val-	1.ryy
.	val-	.	.	.	.	.
=48-	=48-	=48-	=48-	=48-	=48-	=48-
*M4/4	*	*M4/4	*	*M4/4	*	*M4/4
*met(C)	*	*met(C)	*	*met(C)	*	*met(C)
!	!	!	!	!LO:TX:t=P:problem:# above	!	!
4D/	-de	4r	.	2F#X/	-de	0ryy
4D/	et	4d\	et	.	.	.
4E\	A-	4c\	A-	2r	.	.
8E\	-ni-	8c\	-ni-	.	.	.
!	!	!LO:SIC:v:t=custos B-	!	!	!	!
8F#X\	-ma	8c\	-ma	.	.	.
!	!	!LO:PB:g=original	!	!	!	!
8G\L	me-	2B-\	me-	4r	.	.
8D\J	.	.	.	.	.	.
2G\	.	.	.	4G/	et	.
.	.	2A/	.	4A/	A-	.
!LO:TX:t=P:problem:# above	!	!	!	!	!	!
4F#X\	.	.	.	8A/	-ni-	.
.	.	.	.	8A/	-ma	.
=49-	=49-	=49-	=49-	=49-	=49-	=49-
!	!	!	!	!LO:TX:t=P:problem:# above	!	!
!	!	!	!	!LO:N:acc=#	!	!
1G\	-a	1G/	.	4Bn\	me-	1ryy
.	.	.	.	2c\	.	.
.	.	.	.	4B\	.	.
=50-	=50-	=50-	=50-	=50-	=50-	=50-
*M3/2	*	*M3/2	*	*M3/2	*	*M3/2
2r	.	1C/	-a	1c\,<	-a	1.ryy
2r	.	.	.	.	.	.
2C/	tur-	2r	.	2c\	tur-	.
=51-	=51-	=51-	=51-	=51-	=51-	=51-
2Fny\	-ba-	2r	.	2c\	-ba-	1.ryy
2.E\	-ta	1G/	tur-	2.c\	-ta	.
4F\	tur-	.	.	4c\	tur-	.
=52-	=52-	=52-	=52-	=52-	=52-	=52-
2.D/	-ba-	2.d\	-ba-	2.A/	-ba-	1.ryy
4D/	-ta	4d\	-ta	4A/	-ta	.
2C/	eſt	2A/	eſt	2A/	eſt	.
=53-	=53-	=53-	=53-	=53-	=53-	=53-
*M2/2	*	*M2/2	*	*M2/2	*	*M2/2
*met(C|)	*	*met(C|)	*	*met(C|)	*	*met(C|)
1BB-/	val-	4A/	Val-	2Fny/	val-	0ryy
.	.	8G/L	.	.	.	.
.	.	8F/J	.	.	.	.
.	.	2G/	.	4E/	.	.
.	.	.	.	4D/	.	.
!LO:SIC:v:t=custos A	!	!	!LO:LB:g=original	!	!	!
1AA/	-de	1A\	-de	1E/	-de	.
!LO:LB:g=original	!	!	!	!	!	!
=54-	=54-	=54-	=54-	=54-	=54-	=54-
2r	.	2r	.	2r	.	0ryy
1A\	sed	1A\	sed	1c#X\	sed	.
2F#X\	tu	2A/	tu	2d\	tu	.
=55-	=55-	=55-	=55-	=55-	=55-	=55-
1.G\	Do-	1.B-\	Do-	1.d\	Do-	0ryy
2G\	-mi-	2B-\	-mi-	2d\	-mi-	.
=56-	=56-	=56-	=56-	=56-	=56-	=56-
!	!	!LO:SIC:v:t=custos B-	!	!	!	!
1D\	-ne	1A\	-ne	1d\	-ne	0ryy
!	!	!LO:LB:g=original	!	!	!	!
1.BB-/	Us-	1.B-\	vs-	1.d\	vs-	.
=57-	=57-	=57-	=57-	=57-	=57-	=57-
.	.	.	.	.	.	1ryy
2GG/	-que	2c\	-que	2B-y\	-que	.
=58-	=58-	=58-	=58-	=58-	=58-	=58-
*M3/2	*	*M3/2	*	*M3/2	*	*M3/2
1FF/	quo	1A\,<	quo	1cny\,<	quo	1.ryy
2Fny\	Con-	2A/	Con-	2c\	Con-	.
=59-	=59-	=59-	=59-	=59-	=59-	=59-
2.C/	-ver-	2.G/	-uer-	2.c\	-uer-	1.ryy
4C/	-te-	4G/	-te-	4c\	-te-	.
!LO:N:acc=#	!	!	!	!	!	!
2BBn/	-re	2G/	-re	2d\	-re	.
=60-	=60-	=60-	=60-	=60-	=60-	=60-
1C/	Do-	1G/	Do-	1c\	Do-	1.ryy
2C/	-mi-	2G/	-mi-	2c\	-mi-	.
=61-	=61-	=61-	=61-	=61-	=61-	=61-
1GG/	-ne	1G/	-ne	1B-\	-ne	1.ryy
2GG/	et	2G/	er	2B-\	et	.
=62-	=62-	=62-	=62-	=62-	=62-	=62-
2.D/	er-	2.A/	e-	2.d\	e-	1.ryy
4D/	-i-	4A/	-ri-	4d\	-ri-	.
!LO:SIC:v:t=custos E-	!	!	!	!	!	!
2BB-y/	-pe	2B-\	-pe	2d\	-pe	.
!LO:LB:g=original	!	!	!	!	!	!
=63-	=63-	=63-	=63-	=63-	=63-	=63-
2.E-X\	a-	2.B-\	a-	2.e-X\	a-	1.ryy
4E-\	-ni-	4B-\	-ni-	4e-\	-ni-	.
2G\	-mam	2B-\	-mam	2B-\	-mam	.
!	!	!	!	!LO:LB:g=original	!	!
=64-	=64-	=64-	=64-	=64-	=64-	=64-
*M2/2	*	*M2/2	*	*M2/2	*	*M2/2
*met(C|)	*	*met(C|)	*	*met(C|)	*	*met(C|)
1F\	me-	4A/	me-	4d\	me-	0ryy
.	.	2B-\	.	8c\L	.	.
.	.	.	.	8B-\J	.	.
.	.	.	.	2c\	.	.
!	!	!LO:SIC:v:t=custos B-	!	!	!	!
.	.	4A/	.	.	.	.
!	!	!LO:LB:g=original	!	!	!	!
2BB-/	-am	4B-,<\	-am	4d,<\	-am	.
.	.	4B-\	sal-	4d\	sal-	.
2r	.	4G/	-uum	4e-X\	-uum	.
.	.	4B-\	me	4d\	me	.
=65-	=65-	=65-	=65-	=65-	=65-	=65-
4r	.	4F,</	fac	4c,<\	fac	0ryy
*	*	*	*ij	*	*ij	*
4F\	sal-	4A/	sal-	4c\	sal-	.
4D/	-vum	4B-\	-uum	4d\	-uum	.
4E-X\	me	4G/	me	4B-\	me	.
4BB-,</	fac	4B-,<\	fac	4d\	fac	.
4BB-/	[sal-	4B-\	sal-	4d\	sal-	.
4GG/	-vum	4B-\	-uum	4e-X\	-uum	.
4BB-/	me	4B-\	me	4d\	me	.
=66-	=66-	=66-	=66-	=66-	=66-	=66-
2FF,</	fac]	2A/	fac	2c\	fac	0ryy
*	*	*	*Xij	*	*Xij	*
2F\	prop-	2A/	prop-	2c\	prop-	.
2F\	-ter	2A/	-ter	2c\	-ter	.
2Eny\	mi-	2G/	mi-	2c\	mi-	.
=67-	=67-	=67-	=67-	=67-	=67-	=67-
2F\	-ſe-	2A/	-ſe-	2c\	-ſe-	0ryy
!	!	!	!	!LO:TX:t=P:problem:błednie wpisana cała nuta	!	!
!	!	!LO:N:acc=#	!	!LO:N:vis=1	!	!
2D/	-ri-	2Bn\	-ri-	2d\	-ri-	.
4C/	-cor-	1.c\	-cor-	(1G/	-cor-	.
4D/	.	.	.	.	.	.
4E-X\	.	.	.	.	.	.
!LO:SIC:v:t=custos G	!	!	!	!	!	!
4F\	.	.	.	.	.	.
!LO:LB:g=original	!	!	!	!	!	!
=68-	=68-	=68-	=68-	=68-	=68-	=68-
2.G\	.	.	.	4G/)	.	0ryy
.	.	.	.	4G/	-di-	.
.	.	2.B-y\	.	2d\	-am	.
4F\	.	.	.	.	.	.
4.Eny\	.	.	.	0.c\	tu-	.
.	.	4B-\	-di-	.	.	.
8E\	-di-	.	.	.	.	.
2F\	-am	2A/	-am	.	.	.
=69-	=69-	=69-	=69-	=69-	=69-	=69-
0C/	tu-	2A/	tu-	.	.	0ryy
.	.	4G/	.	.	.	.
!	!	!LO:SIC:v:t=custos G	!	!	!	!
.	.	4F/	.	.	.	.
!	!	!LO:LB:g=original	!	!	!	!
.	.	1G/	.	.	.	.
=70-	=70-	=70-	=70-	=70-	=70-	=70-
1FF/;	-am	1A\;<	-am	0c\;<	-am	0ryy
!LO:TX:t=P:problem:kreska pseudotaktowa	!	!	!	!	!	!
1ryy	.	1ryy	.	.	.	.
!	!	!	!	!LO:LB:g=original	!	!
=71-	=71-	=71-	=71-	=71-	=71-	=71-
*M2/2	*	*M2/2	*	*M2/2	*	*M2/2
*met(C|)	*	*met(C|)	*	*met(C|)	*	*met(C|)
2r	.	2r	.	2.c\	Quo-	0ryy
2.F\	Quo-	2.A/	Quo-	.	.	.
.	.	.	.	4c\	-ni-	.
.	.	.	.	2A\	-am	.
4F\	-ni-	4A/	-ni-	.	.	.
2D/	-am	2F/	-am	4r	.	.
.	.	.	.	4d\	non	.
=72-	=72-	=72-	=72-	=72-	=72-	=72-
4r	.	4r	.	4B-\	eſt	0ryy
4G\	non	4B-\	non	4G/	in	.
4E\	eſt	4G/	eſt	1c\	mor-	.
4C/	in	4E/	in	.	.	.
2F\	mor-	2A/	mor-	.	.	.
4D,</	-te	4A,</	-te	2d\	-te	.
4D/	non	4A/	non	.	.	.
=73-	=73-	=73-	=73-	=73-	=73-	=73-
4BB-/	eſt	4B-\	eſt	4r	.	0ryy
4GG/	in	4B-\	in	4d\	non	.
2E-X\	mor-	2.G/	mor-	4B-\	eſt	.
.	.	.	.	4G/	in	.
!LO:LB:g=original	!	!	!	!	!	!
2D/	-te	.	.	4B-\	mor-	.
!	!	!LO:TX:t=P:problem:# below	!	!	!	!
.	.	8F#X/L	.	8A/L	.	.
.	.	8E/J	.	8G/J	.	.
!	!	!LO:TX:t=P:problem:# below	!	!	!	!
2D/	qui	2F#X/	-te	2A/	.	.
=74-	=74-	=74-	=74-	=74-	=74-	=74-
1.G\	me-	2G/	qui	2B-\	-te	0ryy
.	.	4d\	me-	2G/	qui	.
.	.	4c\	.	.	.	.
!	!	!LO:SIC:v:t=custos A	!	!	!	!
.	.	2B-\	.	1d\	me-	.
!	!	!LO:LB:g=original	!	!	!	!
2F\	-mor	2A/	-mor	.	.	.
=75-	=75-	=75-	=75-	=75-	=75-	=75-
1E-X\	sit	1G/	sit	2e-X\	-mor	0ryy
.	.	.	.	2c\	sit	.
0F\	tu-	0Fny/	tu-	2A\	tu-	.
.	.	.	.	1B-\	.	.
=76-	=76-	=76-	=76-	=76-	=76-	=76-
.	.	.	.	.	.	0ryy
.	.	.	.	2A/	.	.
2BB-/	-i	2F,</	-i	2B-\	-i	.
!	!	!	!	!LO:LB:g=original	!	!
2.BB-/	in	2.F/	in	2.d\	in	.
=77-	=77-	=77-	=77-	=77-	=77-	=77-
.	.	.	.	.	.	0ryy
4AA/	in-	4F/	in-	4c\	in-	.
4GG/	-fer-	4G/	-fer-	4B-\	-fer-	.
4FF#X/	-no	4A/	-no	4A/	-no	.
1GG/	au-	1B-\	au-	1G/	au-	.
=78-	=78-	=78-	=78-	=78-	=78-	=78-
2D/	-tem	2A/	-tem	2F/	-tem	0ryy
*	*ij	*	*ij	*	*	*
2.D/	in	2.D/	in	2.A/	in	.
4C/	in-	4E/	in-	4A/	in-	.
4BB-/	-fer-	4.F/	-fer-	4B-\	-fer-	.
4AA/	-no	.	.	4c\	-no	.
.	.	8F/	-no	.	.	.
=79-	=79-	=79-	=79-	=79-	=79-	=79-
1BB-/	au-	1F/	au-	4c\	au-	0ryy
.	.	.	.	8B-\L	.	.
.	.	.	.	8A\J	.	.
.	.	.	.	2B-\	.	.
2FF/	-tem	1F/,<	-tem	2A/	-tem	.
*	*Xij	*	*Xij	*	*	*
2FF/	qui	.	.	2A/	quiſ	.
=80-	=80-	=80-	=80-	=80-	=80-	=80-
2.BB-/	con-	2F/	quis	2.d\	con-	0ryy
.	.	1B-\	con-	.	.	.
!LO:SIC:v:t=custos GG	!	!	!	!	!	!
4AA/	-fi-	.	.	4c\	-fi-	.
!LO:LB:g=original	!	!	!	!	!	!
4.GG/	-te-	.	.	4B-\	-te-	.
.	.	.	.	4c\	.	.
8GG/	-bi-	.	.	.	.	.
2FF/	-tur	2A\	-fi-	4d\	.	.
.	.	.	.	8c\	-bi-	.
.	.	.	.	8d\	-tur	.
=81-	=81-	=81-	=81-	=81-	=81-	=81-
!	!	!	!	!LO:N:acc=#	!	!
!	!	!	!	!LO:TX:t=P:problem:# above	!	!
0GG/	ti-	4.G/	-te-	2Bn\	ti-	0ryy
.	.	8G/	-bi-	.	.	.
!	!	!LO:LB:g=original	!	!	!	!
.	.	2G/	-tur	2c\	.	.
.	.	1G/	ti-	4d\	.	.
.	.	.	.	4e-X\	.	.
.	.	.	.	2d\	.	.
=82-	=82-	=82-	=82-	=82-	=82-	=82-
!LO:TX:t=P:problem:kreska pseudotaktowa	!	!	!	!	!	!
1C/;	-bi?	1G/;	-bi	1c\;<	-bi	1ryy
!	!	!	!	!LO:LB:g=original	!	!
=83-	=83-	=83-	=83-	=83-	=83-	=83-
1.C/	La-	00r	.	1r	.	0ryy
.	.	.	.	2r	.	.
2C/	-bo-	.	.	1c\	La-	.
=84-	=84-	=84-	=84-	=84-	=84-	=84-
1D\	-ra-	.	.	.	.	0ryy
!	!	!	!	!LO:TX:t=P:problem:# above	!	!
!	!	!	!	!LO:N:acc=#	!	!
.	.	.	.	2Bn\	-bo-	.
2C,</	-ui	.	.	2.c\	-ra-	.
2C/	in	.	.	.	.	.
.	.	.	.	4B\	.	.
=85-	=85-	=85-	=85-	=85-	=85-	=85-
4F\	ge-	1.F/	La-	4A/	.	0ryy
4Eny\	.	.	.	4G/	.	.
4D/	.	.	.	2A/	.	.
(>4C/	.	.	.	.	.	.
4.BB-/	.	.	.	2B-y\	.	.
8BB-/	-mi-	.	.	.	.	.
2AA/	-tu	2F/	-bo-	2c\	.	.
=86-	=86-	=86-	=86-	=86-	=86-	=86-
2BB-/)	me-	1G/	-ra-	8B-\L	.	0ryy
.	.	.	.	8c\	.	.
.	.	.	.	8d\	.	.
.	.	.	.	8eny\J	.	.
2C/	.	.	.	2c\	.	.
!LO:SIC:v:t=custos FF	!	!	!	!	!	!
1FF/	-o	2F/	-ui	1A\	-ui	.
.	.	2F/	in	.	.	.
=87-	=87-	=87-	=87-	=87-	=87-	=87-
00r	.	[1B-\	Ge-	0r	.	0ryy
.	.	4B-\]	.	.	.	.
.	.	4B-\	-ni-	.	.	.
.	.	2A/	-tu	.	.	.
=88-	=88-	=88-	=88-	=88-	=88-	=88-
.	.	4G/	me-	2.C/	la-	0ryy
.	.	8A/L	.	.	.	.
.	.	8B-/J	.	.	.	.
.	.	1c\	.	.	.	.
.	.	.	.	4C/	-bo-	.
.	.	.	.	1D/	-ra-	.
!	!	!LO:TX:t=P:problem:# above	!	!	!	!
!	!	!LO:N:acc=#	!	!	!	!
.	.	2Bn\	.	.	.	.
=89-	=89-	=89-	=89-	=89-	=89-	=89-
!LO:SIC:v:t=custos FF	!	!	!	!	!	!
1r	.	2.c\	.	2C/	-ui	0ryy
.	.	.	.	2C/	in	.
!	!	!LO:SIC:v:t=custos A	!	!	!	!
.	.	4B-y\	.	.	.	.
!LO:PB:g=originalLO:LB:g=original	!	!LO:LB:g=original	!	!	!	!
1.FF/	La-	4A/	.	4F/	ge-	.
.	.	4B-\	.	4G/	.	.
.	.	4c\	.	4A/	.	.
!	!	!	!	!LO:SIC:v:t=custos c	!	!
.	.	4B-\	.	4B-/	.	.
!	!	!	!	!LO:LB:g=original	!	!
=90-	=90-	=90-	=90-	=90-	=90-	=90-
.	.	4A/	.	4c\	.	0ryy
.	.	4G/	.	4B-\	.	.
2FF/	-bo-	1F/	.	4A\	.	.
.	.	.	.	8G\L	.	.
.	.	.	.	8A\J	.	.
1GG/	-ra-	.	.	2.B-\	.	.
.	.	2E/	.	.	.	.
.	.	.	.	4B-\	-mi-	.
=91-	=91-	=91-	=91-	=91-	=91-	=91-
2FF/	-ui	2.F/	.	2A/	-tu	0ryy
2FF/	in	.	.	2A/	in	.
.	.	4E/	.	.	.	.
2.BB-/	ge-	2D/	-o	2.d\	ge-	.
.	.	2F/	in	.	.	.
4AA/	.	.	.	4c\	.	.
=92-	=92-	=92-	=92-	=92-	=92-	=92-
4.GG/	.	4.G/	ge-	4.B-\	.	0ryy
8GG/	-mi-	8G/	-ni-	8B-\	-mi-	.
2FF#X/	-tu	4A/	-tu	2A/	-tu	.
.	.	2A/	me-	.	.	.
1GG/	me-	.	.	1B-\	me-	.
.	.	8G/L	.	.	.	.
.	.	8F/J	.	.	.	.
.	.	2G/	.	.	.	.
=93-	=93-	=93-	=93-	=93-	=93-	=93-
1D\	-o	1F#X/	-o	1A\	-o	0ryy
2r	.	2r	.	2r	.	.
2.C/	la-	2.G/	la-	2.c\	la-	.
=94-	=94-	=94-	=94-	=94-	=94-	=94-
.	.	.	.	.	.	0ryy
4C/	-chri-	4G/	-chri-	4c\	-chri-	.
!LO:N:acc=#	!	!	!	!	!	!
2BBn/	-mis	2G/	-mis	4d\	-mis	.
.	.	.	.	2d\	me-	.
!	!	!LO:SIC:v:t=custos G	!	!	!	!
1C/	me-	1G/	me-	.	.	.
.	.	.	.	8c\L	.	.
.	.	.	.	8B-\J	.	.
.	.	.	.	2c\	-is	.
!	!	!LO:LB:g=original	!	!	!	!
=95-	=95-	=95-	=95-	=95-	=95-	=95-
1GG/,<	-is	1G/	-is	4B-\	ſtra-	0ryy
.	.	.	.	2d\	.	.
!	!	!	!	!LO:SIC:v:t=custos B-	!	!
.	.	.	.	4G/	-tum	.
!	!	!	!	!LO:LB:g=original	!	!
2A\	ſtra-	0r	.	2B-\	[me-	.
!	!	!	!	!LO:TX:t=P:problem:# below	!	!
2D/	-tum	.	.	4F#X/	-um]	.
.	.	.	.	4F#/	ri-	.
=96-	=96-	=96-	=96-	=96-	=96-	=96-
2E-X\	me-	.	.	1G/	-ga-	0ryy
!LO:TX:t=P:problem:# below	!	!	!	!	!	!
!LO:N:acc=#	!	!	!	!	!	!
4BBn/	-um	.	.	.	.	.
!LO:SIC:v:t=custos C	!	!	!	!	!	!
4BB/	ri-	.	.	.	.	.
!LO:LB:g=original	!	!	!	!	!	!
2C/	-ga-	1r	.	1G/	-bo	.
2G\	-bo	.	.	.	.	.
=97-	=97-	=97-	=97-	=97-	=97-	=97-
2C/	ſtra-	2c\	ſtra-	1r	.	0ryy
2Eny\	-tum	2G/	-tum	.	.	.
2F\	me-	2A-X/	me-	4r	.	.
.	.	.	.	2c\	stra-	.
4C/	-um	4E/	-um	.	.	.
4C/	ri-	4E/	ri-	4G/	-tum	.
=98-	=98-	=98-	=98-	=98-	=98-	=98-
2AA-X/	-ga-	2Fny/	-ga-	2A-X/	me-	0ryy
4EE/	-bo	4G/	-bo	4G/	-um	.
4EE/	ri-	4G/	ri-	4G/	ri-	.
1FFny/	-ga-	1A-X\	-ga-	4G/	-ga-	.
.	.	.	.	8Fny/L	.	.
.	.	.	.	8E-X/J	.	.
.	.	.	.	2F/	.	.
=99-	=99-	=99-	=99-	=99-	=99-	=99-
!LO:TX:t=P:problem:kreska pseudotaktowa	!	!LO:TX:t=P:problem:kreska pseudotaktowa	!	!LO:TX:b:i:t=Turbat(us) est	!	!
1C/;	-bo	1G/;	-bo	1E#X/;	-bo	1ryy
!	!	!	!	!LO:PB:g=originalLO:LB:g=original	!	!
=100-	=100-	=100-	=100-	=100-	=100-	=100-
*M2/2	*	*M2/2	*	*M2/2	*	*M2/2
*met(C|)	*	*met(C|)	*	*met(C|)	*	*met(C|)
2C/	Tur-	2G/	Tur-	2c\	Tur-	0ryy
4.F\	-ba-	4.Any/	-ba-	4.c\	-ba-	.
8F\	-tus	8A/	-tus	8c\	-tus	.
2C/	eſt	2G/	eſt	2c\	eſt	.
4r	.	4r	.	4r	.	.
*	*ij	*	*	*	*ij	*
4AAny/	tur-	4A/	tur-	4c#X\	tur-	.
=101-	=101-	=101-	=101-	=101-	=101-	=101-
4.D/	-ba-	4.A/	-ba-	4.d\	-ba-	0ryy
8D/	-tus	8A/	-tus	8d\	-tus	.
!	!	!LO:SIC:v:t=custos c	!	!LO:TX:t=P:problem:# above	!	!
2AA/	eſt	2A/	eſt	2c#X\	eſt	.
*	*Xij	*	*	*	*Xij	*
!LO:LB:g=original	!	!LO:PB:g=original	!	!	!	!
2r	.	2r	.	1r	.	.
1A\	a	1c\	a	.	.	.
=102-	=102-	=102-	=102-	=102-	=102-	=102-
.	.	.	.	2r	.	0ryy
2F\	fu-	2A/	fu-	4.f\	a	.
.	.	.	.	8f\	fu-	.
4.B-\	-ro-	1d\	-ro-	2d\	-ro-	.
8B-\	-re	.	.	.	.	.
2.B-\	o-	.	.	2B-\	-re	.
=103-	=103-	=103-	=103-	=103-	=103-	=103-
.	.	2c\	-re	4.cny\	o-	0ryy
4B-\	-cu-	.	.	.	.	.
.	.	.	.	8c\	-cu-	.
2A\	-lus	4c\	o-	2Any/	-lus	.
.	.	8c\	-cu-	.	.	.
.	.	8c\	-lus	.	.	.
1G\	me-	1B-\	me-	2d\	me-	.
.	.	.	.	4c\	.	.
.	.	.	.	4B-\	.	.
=104-	=104-	=104-	=104-	=104-	=104-	=104-
!	!	!	!	!LO:SIC:v:t=custos F	!	!
1F\	-us	4A,</	-uſ	1c\	-us	0ryy
.	.	4F/	in-	.	.	.
.	.	4.A/	-ue-	.	.	.
.	.	8F/	-te-	.	.	.
!	!	!	!	!LO:LB:g=original	!	!
4r	.	1c\	-ra-	1r	.	.
4C/	in-	.	.	.	.	.
4E\	-ue-	.	.	.	.	.
4C/	-te-	.	.	.	.	.
=105-	=105-	=105-	=105-	=105-	=105-	=105-
1F\	-ra-	1c\	-ui	4r	.	0ryy
.	.	.	.	4F/	in-	.
.	.	.	.	4A/	-ue-	.
.	.	.	.	4F/	-te-	.
4BB-/	-ui	1r	.	1B-\	-ra-	.
*	*ij	*	*	*	*	*
4BB-/	in-	.	.	.	.	.
4D/	-ue-	.	.	.	.	.
4BB-/	-te-	.	.	.	.	.
=106-	=106-	=106-	=106-	=106-	=106-	=106-
1E-X\	-ra-	4r	.	1B-\	-ui	0ryy
*	*	*	*ij	*	*	*
.	.	4E/	in-	.	.	.
.	.	4G/	-ue-	.	.	.
.	.	4E/	-te-	.	.	.
4BB-,</	-ui	1B-\	-ra-	2r	.	.
*	*Xij	*	*	*	*	*
2BB-/	in-	.	.	.	.	.
.	.	.	.	4r	.	.
4D/	-ter	.	.	2F/	in-	.
=107-	=107-	=107-	=107-	=107-	=107-	=107-
!LO:SIC:v:t=custos D	!	!	!	!	!	!
1F\	om-	1c\	-ui	.	.	0ryy
*	*	*	*Xij	*	*	*
.	.	.	.	4A/	-ter	.
.	.	.	.	4c\	om-	.
.	.	.	.	4A/	-nes	.
!LO:LB:g=original	!	!	!	!	!	!
2D/	-nes	4r	.	(1d\	i-	.
.	.	2F/	in-	.	.	.
4.D/	i-	.	.	.	.	.
!	!	!LO:SIC:v:t=custos B-	!	!	!	!
.	.	4A/	-ter	.	.	.
8D/	-ni-	.	.	.	.	.
!	!	!LO:LB:g=original	!	!	!	!
=108-	=108-	=108-	=108-	=108-	=108-	=108-
2.G\	-mi-	4B-\	om-	4d\)	.	0ryy
.	.	4G/	-nes	4B-\	-ni-	.
.	.	2.B-\	i-	2d\	-mi-	.
4F\	.	.	.	.	.	.
1.E-X\	.	.	.	2G/	-cos	.
.	.	4A/	.	.	.	.
.	.	1G/	.	4G/	i-	.
.	.	.	.	4A/	.	.
=109-	=109-	=109-	=109-	=109-	=109-	=109-
.	.	.	.	2B-\	-[ni]	0ryy
2D/	.	2F/	-ni-	2B-\	mi-	.
2C/	.	4G/	-mi-	2c\	-cos	.
.	.	4A/	.	.	.	.
2BB-/	-cos	4B-\	.	2d\	me-	.
.	.	4G/	-cos	.	.	.
=110-	=110-	=110-	=110-	=110-	=110-	=110-
!	!	!	!	!LO:SIC:v:t=custos F	!	!
1AA/	me-	1c\	me-	1A\	.	0ryy
!	!	!LO:TX:t=P:problem:# below	!	!LO:LB:g=original	!	!
!	!	!LO:N:acc=#	!	!	!	!
1GG/	-os	1Bn\	-os	1D/	-os	.
=111-	=111-	=111-	=111-	=111-	=111-	=111-
*M3/2	*	*M3/2	*	*M3/2	*	*M3/2
2r	.	2r	.	2r	.	1.ryy
2r	.	2r	.	2r	.	.
2G\	Di-	2B-y\	Di-	2d\	Di-	.
=112-	=112-	=112-	=112-	=112-	=112-	=112-
2.E-X\	-ſce-	2.B-\	-ſce-	2.e-X\	-ſce-	1.ryy
4E-\	-di-	4B-\	-di-	4e-\	-di-	.
4D\	-te	4B-\	-te	4f\	-te	.
4E-\	a	4B-\	a-	4e-\	a	.
=113-	=113-	=113-	=113-	=113-	=113-	=113-
1BB-/	me	1B-\	-me	1d\,<	me	1.ryy
!LO:SIC:v:t=custos G	!	!	!	!	!	!
*	*	*	*ij	*	*ij	*
2B-\	Di-	2B-\	Di-	2d\	Di-	.
!LO:LB:g=original	!	!	!	!	!	!
=114-	=114-	=114-	=114-	=114-	=114-	=114-
2.G\	-ſce-	2.B-\	-ſce-	2.d\	-ſce-	1.ryy
4G\	-di-	4B-\	-di-	4d\	-di-	.
4F#X\	-te	4A\	-te	4d\	-te	.
4G\	a	4B-\	a	4d\	a	.
!	!	!LO:LB:g=original	!	!	!	!
=115-	=115-	=115-	=115-	=115-	=115-	=115-
2D\	me	2A,</	me	2d\	me	1.ryy
*	*	*	*Xij	*	*Xij	*
1BB-/	om-	1B-\	om-	1d\	om-	.
=116-	=116-	=116-	=116-	=116-	=116-	=116-
1FF/	-nis	1A\	-nes	1c\	-nes	1.ryy
2Fny\	qui	2A/	qui	2c\	qui	.
=117-	=117-	=117-	=117-	=117-	=117-	=117-
1F\	o-	1A\	o-	1c\	o-	1.ryy
2Eny\	-pe-	2G/	-pe-	2c\	-pe-	.
=118-	=118-	=118-	=118-	=118-	=118-	=118-
2.F\	-ra-	2.A/	-ra-	2.c\	-ra-	1.ryy
4F\	-mi-	4A/	-mi-	4c\	-mi-	.
!	!	!	!	!LO:LB:g=original	!	!
4C/	-ni	2G/	-ni	4c\	-ni	.
4C/	i-	.	.	4c\	i-	.
=119-	=119-	=119-	=119-	=119-	=119-	=119-
2.D/	-ni-	1F#X/	i-	4A\	-ni-	1.ryy
.	.	.	.	8B-\L	-qui-	.
.	.	.	.	8c\J	.	.
.	.	.	.	2.d\	.	.
4C/	.	.	.	.	.	.
2BB-X/	.	2G/	-ni-	.	.	.
.	.	.	.	8c\L	.	.
.	.	.	.	8B-\J	.	.
=120-	=120-	=120-	=120-	=120-	=120-	=120-
2FF#X/	-qui-	2A/	-qui-	4.A/	.	1.ryy
.	.	.	.	8A/	.	.
1GG/	-ta-	1B-\	-ta-	1G/	-ta-	.
=121-	=121-	=121-	=121-	=121-	=121-	=121-
!LO:TX:t=P:problem:kreska pseudotaktowa	!	!	!	!	!	!
1.D\;<	-tem	1A\	-tem	1F#X/;	-tem	1.ryy
!	!	!	!	!LO:TX:t=P:problem:kreska pseudotaktowa	!	!
.	.	2r	.	2ryy	.	.
!LO:LB:g=original	!	!	!	!	!	!
=122-	=122-	=122-	=122-	=122-	=122-	=122-
*M4/4	*	*M4/4	*	*M4/4	*	*M4/4
*met(C)	*	*met(C)	*	*met(C)	*	*met(C)
4r	.	4r	.	4r	.	0ryy
2BB-/	Quo-	2B-\	Quo-	2d\	Quo-	.
4BB-/	-ni-	4B-\	-ni-	4d\	-ni-	.
4F\	-am	4A/	-am	4c\	-am	.
2F\	ex-	2A/	Ex-	2c\	ex-	.
4E\	-au-	4G/	-au-	4c\	-au-	.
=123-	=123-	=123-	=123-	=123-	=123-	=123-
!	!	!LO:SIC:v:t=custos B	!	!	!	!
2F\	-di-	2A/	-di-	2c\	-di-	0ryy
!	!	!LO:LB:g=original	!	!	!	!
!	!	!LO:N:acc=#	!	!	!	!
2D/	-uit	2Bn\	-uit	2d\	-uit	.
2.C/	Do-	2.c\	Do-	2.G/	Do-	.
4C/	-mi-	4c\	-mi-	4G/	-mi-	.
=124-	=124-	=124-	=124-	=124-	=124-	=124-
2GG/	-nus	1B-X\	-nes	1G/	-nus	0ryy
1G\	Vo-	.	.	.	.	.
!	!	!	!	!LO:LB:g=original	!	!
.	.	00r	.	2r	.	.
2E-X\	-cem	.	.	1e-X\	vo-	.
=125-	=125-	=125-	=125-	=125-	=125-	=125-
1.B-\	fle-	.	.	.	.	0ryy
.	.	.	.	2d-X\	-cem	.
.	.	.	.	2.c\	fle-	.
2A-X\	-tus	.	.	.	.	.
.	.	.	.	4c\	-tu	.
=126-	=126-	=126-	=126-	=126-	=126-	=126-
1G\	me-	.	.	1B-\	me-	1ryy
=127-	=127-	=127-	=127-	=127-	=127-	=127-
*M3/1	*	*M3/1	*	*M3/1	*	*M3/1
1F\	-i	1r	.	1A\,<	-i	1%3ryy
1F\	Ex-	1A\	Ex-	1c\	Ex-	.
1Eny\	-au-	1G/	-au-	1c\	-au-	.
!LO:LB:g=original	!	!	!	!	!	!
=128-	=128-	=128-	=128-	=128-	=128-	=128-
0F\	-di-	0A\	-di-	0c\	-di-	1%3ryy
1C/	-uit	1G/	-uit	1c\	-uit	.
=129-	=129-	=129-	=129-	=129-	=129-	=129-
1r	.	1r	.	1r	.	1%3ryy
*	*ij	*	*ij	*	*ij	*
1G\	ex-	1B-\	ex-	1dny\	ex-	.
1F#X\	-au-	1A\	-au-	1d\	-au-	.
=130-	=130-	=130-	=130-	=130-	=130-	=130-
0G\	-di-	0B-\	-di-	0d\	-di-	1%3ryy
1D\	-uit	1A\,<	-uit	1d\	-uit	.
*	*Xij	*	*Xij	*	*Xij	*
=131-	=131-	=131-	=131-	=131-	=131-	=131-
1.E-X\	Do-	1.G/	Do-	1.B-\	Do-	1%3ryy
2E-\	-mi-	2G/	-mi-	2B-\	-mi-	.
1BB-/	-nus	1Fny/,<	-nus	1B-\	-nus	.
=132-	=132-	=132-	=132-	=132-	=132-	=132-
0BB-/	de-	0F/	de-	0B-\	de-	1%3ryy
1FFny/	-pre-	1A\	-pre-	1c\	-pre-	.
=133-	=133-	=133-	=133-	=133-	=133-	=133-
1.GG/	-ca-	1.G/	-ca-	1.B-\	-ca-	1%3ryy
2GG/	-ti-	2G/	-ti-	2B-\	-ti-	.
!	!	!	!	!LO:LB:g=original	!	!
1C/	-o-	1G/	-o-	1c\	-o-	.
!	!	!LO:LB:g=original	!	!	!	!
=134-	=134-	=134-	=134-	=134-	=134-	=134-
*col	*	*	*	*	*	*
1E-X\	-nem	1G/	-nem	1B-\	-nem	1%3ryy
0D\	me-	0A\	me-	0d\	me-	.
*Xcol	*	*	*	*	*	*
=135-	=135-	=135-	=135-	=135-	=135-	=135-
1GG/,<	-am	1B-\	-am	1d\,<	-am	1%3ryy
1.G\	Do-	1.B-\	Do-	1.d\	Do-	.
2G\	-mi-	2B-\	-mi-	2d\	-mi-	.
!LO:LB:g=original	!	!	!	!	!	!
=136-	=136-	=136-	=136-	=136-	=136-	=136-
0D\	-nus	0A\,<	-nus	0d\	-nus	1%3ryy
1D\	o-	1A\	o-	1d\	o-	.
=137-	=137-	=137-	=137-	=137-	=137-	=137-
0G\	-ra-	0B-\	-ra-	0d\	-ra-	1%3ryy
1Fny\	-ti-	1c\	-ti-	1f\	-ti-	.
=138-	=138-	=138-	=138-	=138-	=138-	=138-
0B-\	-o-	0d\	-o-	0f\	-o-	1%3ryy
1G\	-nem	1e#X\	-nem	1g\	-nem	.
=139-	=139-	=139-	=139-	=139-	=139-	=139-
0Any\	me-	1c\	me-	0eny\	me-	1%3ryy
.	.	1c\	-am	.	.	.
1Eny\,<	-am	1c\	su-	1e\	-am	.
=140-	=140-	=140-	=140-	=140-	=140-	=140-
*	*	*	*	*col	*	*
1F\	su-	0c\	-sce-	1d\	su-	1%3ryy
0G\	-sce-	.	.	0d\	-ſce-	.
!	!	!LO:N:acc=#	!	!	!	!
.	.	1Bn\	.	.	.	.
*	*	*	*	*Xcol	*	*
=141-	=141-	=141-	=141-	=141-	=141-	=141-
0.C/	-pit	1c\	-pit	0.e\	-pit	1%3ryy
*	*	*col	*ij	*	*	*
.	.	2B-\	su-	.	.	.
.	.	2A\	.	.	.	.
*	*	*Xcol	*	*	*	*
.	.	1G/	.	.	.	.
=142-	=142-	=142-	=142-	=142-	=142-	=142-
*col	*	*	*	*col	*	*
1AA/	su-	1A\	.	1c\	su-	1%3ryy
0C/	-ſce-	0G/	-ſce-	0c\	-ſce-	.
*Xcol	*	*	*	*Xcol	*	*
=143-	=143-	=143-	=143-	=143-	=143-	=143-
!LO:N:vis=0	!	!	!	!LO:TX:t=P:problem:kreska pseudotaktowa	!	!
0.FF/;	-pit	0.A\;	-pit	0.c\;<	-pit	1%3ryy
*	*	*	*Xij	*	*	*
!LO:PB:g=original	!	!	!	!	!	!
=144-	=144-	=144-	=144-	=144-	=144-	=144-
!LO:N:vis=00	!	!LO:N:vis=00	!	!LO:N:vis=0	!	!
00.r	.	00.r	.	0.r	.	1%3ryy
=145-	=145-	=145-	=145-	=145-	=145-	=145-
.	.	.	.	0c\	E-	1%3ryy
.	.	.	.	1c\	-ru-	.
=146-	=146-	=146-	=146-	=146-	=146-	=146-
!LO:N:vis=0	!	!LO:N:vis=00	!	!	!	!
0.r	.	00.r	.	1B-\	-beſ-	1%3ryy
.	.	.	.	2B-\	-cant	.
.	.	.	.	2A\	et	.
.	.	.	.	2B-\	con-	.
.	.	.	.	2G/	-tur-	.
=147-	=147-	=147-	=147-	=147-	=147-	=147-
0F\	E-	.	.	1.A\	-ben-	1%3ryy
.	.	.	.	2G,</	-tur	.
1F\	-ru-	.	.	2A/	om-	.
.	.	.	.	2B-\	-nes	.
=148-	=148-	=148-	=148-	=148-	=148-	=148-
1E\	-beſ-	0c\	E-	2.c\	i-	1%3ryy
.	.	.	.	4d\	-ni-	.
2E,<\	-cant	.	.	0e\	-mi-	.
2D\	et	.	.	.	.	.
2E\	con-	1c\	-ru-	.	.	.
2C/	-tur-	.	.	.	.	.
=149-	=149-	=149-	=149-	=149-	=149-	=149-
1.D\	-ben-	1B-\	-beſ-	1d\	-ci	1%3ryy
.	.	2B-\	-cant	1r	.	.
2C,</	-tur	2A/	et	.	.	.
2D\	Ve-	2B-\	con-	1r	.	.
2E\	-he-	2G/	-tur-	.	.	.
=150-	=150-	=150-	=150-	=150-	=150-	=150-
!LO:N:vis=0	!	!	!	!	!	!
0.F\	-men-	1.A\	-ben-	1r	.	1%3ryy
.	.	.	.	1f\	Om-	.
.	.	2G/	-tur	.	.	.
.	.	2A/	Ve-	1f\	-neſ	.
.	.	2B-\	-he-	.	.	.
!	!	!	!	!LO:LB:g=original	!	!
=151-	=151-	=151-	=151-	=151-	=151-	=151-
1C/	-ter	0c\	-men-	0e-X\	i-	1%3ryy
1c\	om-	.	.	.	.	.
1B-\	-nes	1d\	-ter	1d\	-ni-	.
=152-	=152-	=152-	=152-	=152-	=152-	=152-
0A-X\	i-	1.e-X\	om-	1.c\	-mi-	1%3ryy
.	.	2c\	-nes	2c\	-ci	.
1G\	-ni-	2.B-\	i-	2d\	i-	.
.	.	.	.	2eny\	-ni-	.
.	.	4B-\	-ni-	.	.	.
=153-	=153-	=153-	=153-	=153-	=153-	=153-
0F\	-mi-	0c\	-mi-	2f\	-mi-	1%3ryy
.	.	.	.	4e\	.	.
.	.	.	.	4d\	.	.
.	.	.	.	1.c\	.	.
!LO:SIC:v:t=custos FF	!	!	!	!	!	!
1E\	-ci	1c\	-ci	.	.	.
.	.	.	.	2B-\	-ci	.
!LO:LB:g=original	!	!	!	!	!	!
=154-	=154-	=154-	=154-	=154-	=154-	=154-
0.F\	me-	0.c\	me-	0.A-X\	me-	1%3ryy
!	!	!LO:LB:g=original	!	!	!	!
=155-	=155-	=155-	=155-	=155-	=155-	=155-
!	!	!	!	!LO:TX:t=P:problem:kreska pseudotaktowa	!	!
0.C/	-i	0.c\	-i	0.G/	-i	1%3ryy
=156-	=156-	=156-	=156-	=156-	=156-	=156-
1.C/	con-	1.G/	con-	1.c\	Con-	1%3ryy
2GG/	-uer-	2B-\	-uer-	2d\	-uer-	.
1D\	-tan-	1A\	-tan-	1d\	-tan-	.
=157-	=157-	=157-	=157-	=157-	=157-	=157-
0.GG/	-tur	0.B-\	-tur	0.d\	-tur	1%3ryy
!	!	!	!	!LO:PB:g=original	!	!
=158-	=158-	=158-	=158-	=158-	=158-	=158-
*	*ij	*	*ij	*	*ij	*
1.G\	con-	1.B-\	Con-	1.d\	Con-	1%3ryy
2D/	-uen-	2A/	-uer-	2d\	-uer-	.
1Any\	-tan-	1A\	-tan-	1c#X\	-tan-	.
=159-	=159-	=159-	=159-	=159-	=159-	=159-
0.D\	-tur	0.A\	-tur	0.d\	-tur	1%3ryy
*	*Xij	*	*Xij	*	*Xij	*
=160-	=160-	=160-	=160-	=160-	=160-	=160-
1BB-/	et	1B-\	et	1d\	et	1%3ryy
2E-X\	e-	2B-\	e-	2e-X\	e-	.
2BB-/	-ru-	2B-\	-ru-	2d\	-ru-	.
1F\	-beſ-	1A\	-beſ-	1cny\	-beſ-	.
=161-	=161-	=161-	=161-	=161-	=161-	=161-
2BB-/	-cant	2B-\	-cant	2d,<\	-cant	1%3ryy
*	*ij	*	*ij	*	*	*
2B-\	et	2B-\	et	2d\	.	.
2G\	e-	2B-\	e-	2eny\	.	.
2F\	-ru-	2c\	-ru-	2f\	.	.
!LO:SIC:v:t=custos FF	!	!	!	!	!	!
1C/	-beſ-	1c\	-beſ-	1e\	.	.
!LO:LB:g=original	!	!	!	!	!	!
=162-	=162-	=162-	=162-	=162-	=162-	=162-
*M2/2	*	*M2/2	*	*M2/2	*	*M2/2
*met(C|)	*	*met(C|)	*	*met(C|)	*	*met(C|)
2F,<\	-cant	4c,<\	-cant	2f\	.	0ryy
*	*Xij	*	*Xij	*	*	*
.	.	4c\	val-	.	.	.
!	!	!LO:LB:g=original	!	!	!	!
2F\	Val-	4A\	-de	2r	.	.
.	.	4F/	Ve-	.	.	.
4Eny\	-de	2c\	-lo-	1r	.	.
4C/	Ve-	.	.	.	.	.
4.G\	-lo-	4.B-\	.	.	.	.
8G\	-ci-	8B-\	-ci-	.	.	.
=163-	=163-	=163-	=163-	=163-	=163-	=163-
4D/	-ter	2A\	-ter	4r	.	0ryy
*	*ij	*	*	*	*	*
4D/	val-	.	.	4f\	Val-	.
4C/	-de	2r	.	4e\	-de	.
4AA/	ve-	.	.	4c\	ue-	.
!	!	!	!	!LO:LB:g=original	!	!
4.BB-/	-lo-	4r	.	4.d\	-lo-	.
.	.	4B-\	val-	.	.	.
8BB-/	-ci-	.	.	8d\	-ci-	.
4FF/	-ter	4A\	-de	4c,<\	-ter	.
!	!	!	!	!LO:SIC:v:t=custos d	!	!
*	*Xij	*	*	*	*ij	*
4F\	Val-	4F/	ve-	4c\	ue-	.
=164-	=164-	=164-	=164-	=164-	=164-	=164-
4D/	-de	4.B-\	-lo-	4.d\	-lo-	0ryy
4BB-/	ve-	.	.	.	.	.
.	.	8B-\	-ci-	8d\	-ci-	.
4.E-X\	-lo-	2B-\	-ter	4.e-X\	-ter	.
8D/	-ci-	.	.	8e-\	ue-	.
4BB-/	-ter	1r	.	4d\	-lo-	.
4B-\	Val-	.	.	4B-\	-ci-	.
4A\	-de	.	.	8c\L	-ter	.
*	*	*	*	*	*Xij	*
.	.	.	.	8B-\J	.	.
4F\	Val-	.	.	8c\L	.	.
.	.	.	.	8d\J	.	.
=165-	=165-	=165-	=165-	=165-	=165-	=165-
4E-X\	-de	4r	.	4.e-X\	.	0ryy
!LO:SIC:v:t=custos GG	!	!	!	!	!	!
4C/	ve-	2c\	Val-	.	.	.
.	.	.	.	8e-\	.	.
!LO:LB:g=original	!	!	!	!	!	!
4.GG/	-lo-	.	.	4d\	.	.
.	.	2B-\	-de	4d\	ve-	.
8GG/	-ci-	.	.	.	.	.
4.AA/	-ter	.	.	1.c\	-lo-	.
.	.	4A/	Val-	.	.	.
8FF/	ve-	.	.	.	.	.
1C/	-lo-	4G/	-de	.	.	.
.	.	4F/	ve-	.	.	.
=166-	=166-	=166-	=166-	=166-	=166-	=166-
.	.	2.G/	-lo-	.	.	0ryy
2C/	-ci-	.	.	2c\	-ci-	.
.	.	4G/	-ci-	.	.	.
!LO:N:vis=0	!	!LO:N:vis=0	!	!	!	!
1FF/;<	-ter	1A\;<	-ter	1c\;<	-ter	.
==	==	==	==	==	==	==
*-	*-	*-	*-	*-	*-	*-
!!!system-decoration: [(s1,s2,s3,s4)]
!!!RDF**kern: > = above
!!!RDF**kern: < = below
!!!EED: Andrzej Borzym
!!!EST: 2021-07-05
!!!AIN: 1 alto 1 bass 1 soprn 1 tenor
!!!ENC: Mateusz Solarz
!!!END: 2021-06-30
